X: 9904
T: Desert Storm
R: reel
M: 4/4
K: Bminor
B|:BABE- EBE2-|EBBc dcBA|BABE -EBE2|AFAd- dBAF-|
FBAB E3B|BABe- eddB|AFAd- dBAF|ABE2E2 FA:|
|:B2B2 e2ed-|dB~cA BEFA|~BA B~E- EBE2|ABAF DBAF|
B2B2 e2ed-|dB~cA~B2AF|DFAd- dBAF|1 ABE2E2FA:|2 ABE2E4||
|:e2B2 B2cd|eBed -dBAF|d2cd FAdd-|dFFd FAdB|
e2e2 dBAF|AdcB- BAAF|DFAd- dBAF|1 ABE2E4:|1 ABE4E2||

